images/mastodon.svg

<svg width="74" height="79" viewBox="0 0 74 79" fill="white" xmlns="http://www.w3.org/2000/svg">
<path d="M73.7014 17.9592C72.5616 9.62034 65.1774 3.04876 56.424 1.77536C54.9472 1.56019 49.3517 0.7771 36.3901 0.7771H36.2933C23.3281 0.7771 20.5465 1.56019 19.0697 1.77536C10.56 3.01348 2.78877 8.91838 0.903306 17.356C-0.00357857 21.5113 -0.100361 26.1181 0.068112 30.3439C0.308275 36.404 0.354874 42.4535 0.91406 48.489C1.30064 52.498 1.97502 56.4751 2.93215 60.3905C4.72441 67.6217 11.9795 73.6395 19.0876 76.0945C26.6979 78.6548 34.8821 79.0799 42.724 77.3221C43.5866 77.1245 44.4398 76.8953 45.2833 76.6342C47.1867 76.0381 49.4199 75.3714 51.0616 74.2003C51.0841 74.1839 51.1026 74.1627 51.1156 74.1382C51.1286 74.1138 51.1359 74.0868 51.1368 74.0592V68.2108C51.1364 68.185 51.1302 68.1596 51.1185 68.1365C51.1069 68.1134 51.0902 68.0932 51.0695 68.0773C51.0489 68.0614 51.0249 68.0503 50.9994 68.0447C50.9738 68.0391 50.9473 68.0392 50.9218 68.045C45.8976 69.226 40.7491 69.818 35.5836 69.8087C26.694 69.8087 24.3031 65.6569 23.6184 63.9285C23.0681 62.4347 22.7186 60.8764 22.5789 59.2934C22.5775 59.2669 22.5825 59.2403 22.5934 59.216C22.6043 59.1916 22.621 59.1702 22.6419 59.1533C22.6629 59.1365 22.6876 59.1248 22.714 59.1191C22.7404 59.1134 22.7678 59.1139 22.794 59.1206C27.7345 60.2936 32.799 60.8856 37.8813 60.8843C39.1036 60.8843 40.3223 60.8843 41.5447 60.8526C46.6562 60.7115 52.0437 60.454 57.0728 59.4874C57.1983 59.4628 57.3237 59.4416 57.4313 59.4098C65.3638 57.9107 72.9128 53.2051 73.6799 41.2895C73.7086 40.8204 73.7803 36.3758 73.7803 35.889C73.7839 34.2347 74.3216 24.1533 73.7014 17.9592ZM61.4925 47.6918H53.1514V27.5855C53.1514 23.3526 51.3591 21.1938 47.7136 21.1938C43.7061 21.1938 41.6988 23.7476 41.6988 28.7919V39.7974H33.4078V28.7919C33.4078 23.7476 31.3969 21.1938 27.3894 21.1938C23.7654 21.1938 21.9552 23.3526 21.9516 27.5855V47.6918H13.6176V26.9752C13.6176 22.7423 14.7157 19.3795 16.9118 16.8868C19.1772 14.4 22.1488 13.1231 25.8373 13.1231C30.1064 13.1231 33.3325 14.7386 35.4832 17.9662L37.5587 21.3949L39.6377 17.9662C41.7884 14.7386 45.0145 13.1231 49.2765 13.1231C52.9614 13.1231 55.9329 14.4 58.2055 16.8868C60.4017 19.3772 61.4997 22.74 61.4997 26.9752L61.4925 47.6918Z" fill="inherit"/>
</svg>

<svg xmlns="http://www.w3.org/2000/svg" width="74" height="79" fill="#fff" viewBox="0 0 74 79"><path fill="inherit" d="M73.701 17.96c-1.14-8.34-8.524-14.911-17.277-16.185C54.947 1.56 49.352.777 36.39.777h-.097c-12.965 0-15.746.783-17.223.998C10.56 3.013 2.789 8.918.903 17.356-.004 21.511-.1 26.118.068 30.344c.24 6.06.287 12.11.846 18.145a84 84 0 0 0 2.018 11.902c1.792 7.23 9.048 13.249 16.156 15.703a44 44 0 0 0 23.636 1.228 35 35 0 0 0 2.56-.688c1.903-.596 4.136-1.263 5.778-2.434a.18.18 0 0 0 .075-.14v-5.85a.17.17 0 0 0-.068-.133.18.18 0 0 0-.147-.032 66.5 66.5 0 0 1-15.338 1.764c-8.89 0-11.28-4.152-11.966-5.88a18 18 0 0 1-1.04-4.636.17.17 0 0 1 .064-.14.17.17 0 0 1 .152-.032 65.3 65.3 0 0 0 15.087 1.763c1.223 0 2.441 0 3.664-.031 5.111-.142 10.499-.399 15.528-1.366.125-.024.25-.045.358-.077 7.933-1.5 15.482-6.205 16.249-18.12.029-.47.1-4.914.1-5.401.004-1.654.542-11.736-.079-17.93M61.493 47.691H53.15V27.586c0-4.233-1.792-6.392-5.437-6.392-4.008 0-6.015 2.554-6.015 7.598v11.005h-8.291V28.792c0-5.044-2.011-7.598-6.019-7.598-3.624 0-5.434 2.159-5.437 6.392v20.106h-8.334V26.975q0-6.35 3.294-10.088c2.265-2.487 5.237-3.764 8.925-3.764 4.27 0 7.496 1.616 9.646 4.843l2.076 3.429 2.079-3.429c2.15-3.227 5.377-4.843 9.639-4.843 3.684 0 6.656 1.277 8.929 3.764Q61.5 20.622 61.5 26.975z"/></svg>
